report_00007_2020-12-11T15:55:29.892Z/bootup-time/samples/pages+cached+nointeractive/score/values.svg

<svg width="640" height="490" xmlns="http://www.w3.org/2000/svg" xmlns:xlink="http://www.w3.org/1999/xlink"><path fill="#fff" d="M0 0h640v490H0z"/><defs><path id="d" stroke-width=".222" stroke="currentColor" d="M-1-1h2v2h-2z"/><path id="b" stroke-width=".222" stroke="currentColor" d="M0-1.33l-1.33 2h2.66z"/><path id="f" stroke-width=".222" stroke="currentColor" d="M0 1.33L1.265.411.782-1.067l-1.564-.009-.483 1.487z"/><use xlink:href="#b" id="c" stroke="currentColor" transform="rotate(180)"/><use xlink:href="#d" id="e" stroke="currentColor" transform="rotate(45)"/><circle id="a" stroke-width=".222" stroke="currentColor" cx="0" cy="0" r="1"/></defs><g fill="none" color="#000" stroke="currentColor"><path stroke="#000" d="M70.5 398.9h9m535.5 0h-9"/><text transform="translate(62.2 402.8)" stroke="none" fill="#000" font-family="Arial" font-size="12" text-anchor="end"><tspan>0.987</tspan></text></g><g fill="none" color="#000" stroke="currentColor"><path stroke="#000" d="M70.5 329.9h9m535.5 0h-9"/><text transform="translate(62.2 333.8)" stroke="none" fill="#000" font-family="Arial" font-size="12" text-anchor="end"><tspan>0.988</tspan></text></g><g fill="none" color="#000" stroke="currentColor"><path stroke="#000" d="M70.5 261h9m535.5 0h-9"/><text transform="translate(62.2 264.9)" stroke="none" fill="#000" font-family="Arial" font-size="12" text-anchor="end"><tspan>0.989</tspan></text></g><g fill="none" color="#000" stroke="currentColor"><path stroke="#000" d="M70.5 192h9m535.5 0h-9"/><text transform="translate(62.2 195.9)" stroke="none" fill="#000" font-family="Arial" font-size="12" text-anchor="end"><tspan>0.99</tspan></text></g><g fill="none" color="#000" stroke="currentColor"><path stroke="#000" d="M70.5 123.1h9m535.5 0h-9"/><text transform="translate(62.2 127)" stroke="none" fill="#000" font-family="Arial" font-size="12" text-anchor="end"><tspan>0.991</tspan></text></g><g fill="none" color="#000" stroke="currentColor"><path stroke="#000" d="M70.5 54.1h9m535.5 0h-9"/><text transform="translate(62.2 58)" stroke="none" fill="#000" font-family="Arial" font-size="12" text-anchor="end"><tspan>0.992</tspan></text></g><g fill="none" color="#000" stroke="currentColor"><path stroke="#000" d="M70.5 436v-9m0-408.9v9"/><text transform="translate(70.5 457.9)" stroke="none" fill="#000" font-family="Arial" font-size="12" text-anchor="middle"><tspan>0</tspan></text></g><g fill="none" color="#000" stroke="currentColor"><path stroke="#000" d="M125.5 436v-9m0-408.9v9"/><text transform="translate(125.5 457.9)" stroke="none" fill="#000" font-family="Arial" font-size="12" text-anchor="middle"><tspan>10</tspan></text></g><g fill="none" color="#000" stroke="currentColor"><path stroke="#000" d="M180.5 436v-9m0-408.9v9"/><text transform="translate(180.5 457.9)" stroke="none" fill="#000" font-family="Arial" font-size="12" text-anchor="middle"><tspan>20</tspan></text></g><g fill="none" color="#000" stroke="currentColor"><path stroke="#000" d="M235.5 436v-9m0-408.9v9"/><text transform="translate(235.5 457.9)" stroke="none" fill="#000" font-family="Arial" font-size="12" text-anchor="middle"><tspan>30</tspan></text></g><g fill="none" color="#000" stroke="currentColor"><path stroke="#000" d="M290.5 436v-9m0-408.9v9"/><text transform="translate(290.5 457.9)" stroke="none" fill="#000" font-family="Arial" font-size="12" text-anchor="middle"><tspan>40</tspan></text></g><g fill="none" color="#000" stroke="currentColor"><path stroke="#000" d="M345.5 436v-9m0-408.9v9"/><text transform="translate(345.5 457.9)" stroke="none" fill="#000" font-family="Arial" font-size="12" text-anchor="middle"><tspan>50</tspan></text></g><g fill="none" color="#000" stroke="currentColor"><path stroke="#000" d="M400.5 436v-9m0-408.9v9"/><text transform="translate(400.5 457.9)" stroke="none" fill="#000" font-family="Arial" font-size="12" text-anchor="middle"><tspan>60</tspan></text></g><g fill="none" color="#000" stroke="currentColor"><path stroke="#000" d="M455.5 436v-9m0-408.9v9"/><text transform="translate(455.5 457.9)" stroke="none" fill="#000" font-family="Arial" font-size="12" text-anchor="middle"><tspan>70</tspan></text></g><g fill="none" color="#000" stroke="currentColor"><path stroke="#000" d="M510.5 436v-9m0-408.9v9"/><text transform="translate(510.5 457.9)" stroke="none" fill="#000" font-family="Arial" font-size="12" text-anchor="middle"><tspan>80</tspan></text></g><g fill="none" color="#000" stroke="currentColor"><path stroke="#000" d="M565.5 436v-9m0-408.9v9"/><text transform="translate(565.5 457.9)" stroke="none" fill="#000" font-family="Arial" font-size="12" text-anchor="middle"><tspan>90</tspan></text></g><path stroke="#000" d="M70.5 18.1V436H615V18.1H70.5z" fill="none" color="#000"/><text transform="translate(334.1 475.9)" stroke="none" fill="#000" font-family="Arial" font-size="12" text-anchor="end" color="#000"><tspan>score</tspan></text><path stroke="#9400D3" d="M342.4 472h42.2M70.5 255.5l5.5-148 5.5 230.3L87 198.5l5.5 37L98 127.6l5.5 124.9 5.5-137.9 5.5 115.1 5.5 137.4 5.5-165.4 5.5 29.1 5.5-38.9 5.5 44 5.5-127.2 5.5 3.6 5.5 104L164 99.1l5.5 31.8 5.5 90.9 5.5-106.5 5.5 9.6 5.5-13.1 5.5 100.1 5.5 104.7 5.5-178.8 5.5-26.9 5.5-.9 5.5 7.2 5.5-17.1 5.5 114.3L241 112l5.5-1.2 5.5 127.3 5.5-131.8 5.5-6.6 5.5 59.6 5.5 1.2 5.5 56.4 5.5-80.4 5.5-19.6 5.5 91.8L301.5 87l5.5 126.9 5.5-101.3 5.5 23.7 5.5-7.9 5.5 31.3 5.5 14.6 5.5-56.2 5.5 10.9 5.5 4.9 5.5.6 5.5-23.2 5.5 31.5L373 115l5.5 149.1 5.5-55.7 5.5-83.5 5.5-27.8 5.5 19.2 5.5 95.4 5.5-91L417 102l5.5 3.7 5.5 29.4 5.5-21.2 5.5 1.5 5.5 85.8 5.5-70.4 5.5 110.5 5.5-13.6 5.5-92 5.5 87.8 5.5-91.8 5.5-9.4 5.5-9.6 5.5-.5 5.5-6.5 5.5-17 5.5 71 5.5-18.9 5.5 37.6 5.5-65.2 5.5 6.3 5.5 134.9 5.5-132.3 5.5 127.4 5.5-119.9 5.5-.9 5.5-20.9 5.5 92.4 5.5-95.2 5.5 5 5.5 37.7L593 210l5.5-99.4 5.5 14.2 5.5 97.7 5.5-54.7" fill="none" color="#000"/><g fill="none" color="#000" stroke="currentColor"><path stroke="#000" d="M70.5 18.1V436H615V18.1H70.5z"/></g></svg>

<?xml version="1.0" encoding="utf-8"  standalone="no"?>
<svg 
 width="640" height="490"
 viewBox="0 0 640 490"
 xmlns="http://www.w3.org/2000/svg"
 xmlns:xlink="http://www.w3.org/1999/xlink"
>

<title>Gnuplot</title>
<desc>Produced by GNUPLOT 5.4 patchlevel 0 </desc>

<g id="gnuplot_canvas">

<rect x="0" y="0" width="640" height="490" fill="#ffffff"/>
<defs>

	<circle id='gpDot' r='0.5' stroke-width='0.5' stroke='currentColor'/>
	<path id='gpPt0' stroke-width='0.222' stroke='currentColor' d='M-1,0 h2 M0,-1 v2'/>
	<path id='gpPt1' stroke-width='0.222' stroke='currentColor' d='M-1,-1 L1,1 M1,-1 L-1,1'/>
	<path id='gpPt2' stroke-width='0.222' stroke='currentColor' d='M-1,0 L1,0 M0,-1 L0,1 M-1,-1 L1,1 M-1,1 L1,-1'/>
	<rect id='gpPt3' stroke-width='0.222' stroke='currentColor' x='-1' y='-1' width='2' height='2'/>
	<rect id='gpPt4' stroke-width='0.222' stroke='currentColor' fill='currentColor' x='-1' y='-1' width='2' height='2'/>
	<circle id='gpPt5' stroke-width='0.222' stroke='currentColor' cx='0' cy='0' r='1'/>
	<use xlink:href='#gpPt5' id='gpPt6' fill='currentColor' stroke='none'/>
	<path id='gpPt7' stroke-width='0.222' stroke='currentColor' d='M0,-1.33 L-1.33,0.67 L1.33,0.67 z'/>
	<use xlink:href='#gpPt7' id='gpPt8' fill='currentColor' stroke='none'/>
	<use xlink:href='#gpPt7' id='gpPt9' stroke='currentColor' transform='rotate(180)'/>
	<use xlink:href='#gpPt9' id='gpPt10' fill='currentColor' stroke='none'/>
	<use xlink:href='#gpPt3' id='gpPt11' stroke='currentColor' transform='rotate(45)'/>
	<use xlink:href='#gpPt11' id='gpPt12' fill='currentColor' stroke='none'/>
	<path id='gpPt13' stroke-width='0.222' stroke='currentColor' d='M0,1.330 L1.265,0.411 L0.782,-1.067 L-0.782,-1.076 L-1.265,0.411 z'/>
	<use xlink:href='#gpPt13' id='gpPt14' fill='currentColor' stroke='none'/>
	<filter id='textbox' filterUnits='objectBoundingBox' x='0' y='0' height='1' width='1'>
	  <feFlood flood-color='#FFFFFF' flood-opacity='1' result='bgnd'/>
	  <feComposite in='SourceGraphic' in2='bgnd' operator='atop'/>
	</filter>
	<filter id='greybox' filterUnits='objectBoundingBox' x='0' y='0' height='1' width='1'>
	  <feFlood flood-color='lightgrey' flood-opacity='1' result='grey'/>
	  <feComposite in='SourceGraphic' in2='grey' operator='atop'/>
	</filter>
</defs>
<g fill="none" color="#FFFFFF" stroke="black" stroke-width="1.00" stroke-linecap="butt" stroke-linejoin="miter">
</g>
<g fill="none" color="black" stroke="currentColor" stroke-width="1.00" stroke-linecap="butt" stroke-linejoin="miter">
	<path stroke='black'  d='M70.5,398.9 L79.5,398.9 M615.0,398.9 L606.0,398.9  '/>	<g transform="translate(62.2,402.8)" stroke="none" fill="black" font-family="Arial" font-size="12.00"  text-anchor="end">
		<text><tspan font-family="Arial" > 0.987</tspan></text>
	</g>
</g>
<g fill="none" color="black" stroke="currentColor" stroke-width="1.00" stroke-linecap="butt" stroke-linejoin="miter">
	<path stroke='black'  d='M70.5,329.9 L79.5,329.9 M615.0,329.9 L606.0,329.9  '/>	<g transform="translate(62.2,333.8)" stroke="none" fill="black" font-family="Arial" font-size="12.00"  text-anchor="end">
		<text><tspan font-family="Arial" > 0.988</tspan></text>
	</g>
</g>
<g fill="none" color="black" stroke="currentColor" stroke-width="1.00" stroke-linecap="butt" stroke-linejoin="miter">
	<path stroke='black'  d='M70.5,261.0 L79.5,261.0 M615.0,261.0 L606.0,261.0  '/>	<g transform="translate(62.2,264.9)" stroke="none" fill="black" font-family="Arial" font-size="12.00"  text-anchor="end">
		<text><tspan font-family="Arial" > 0.989</tspan></text>
	</g>
</g>
<g fill="none" color="black" stroke="currentColor" stroke-width="1.00" stroke-linecap="butt" stroke-linejoin="miter">
	<path stroke='black'  d='M70.5,192.0 L79.5,192.0 M615.0,192.0 L606.0,192.0  '/>	<g transform="translate(62.2,195.9)" stroke="none" fill="black" font-family="Arial" font-size="12.00"  text-anchor="end">
		<text><tspan font-family="Arial" > 0.99</tspan></text>
	</g>
</g>
<g fill="none" color="black" stroke="currentColor" stroke-width="1.00" stroke-linecap="butt" stroke-linejoin="miter">
	<path stroke='black'  d='M70.5,123.1 L79.5,123.1 M615.0,123.1 L606.0,123.1  '/>	<g transform="translate(62.2,127.0)" stroke="none" fill="black" font-family="Arial" font-size="12.00"  text-anchor="end">
		<text><tspan font-family="Arial" > 0.991</tspan></text>
	</g>
</g>
<g fill="none" color="black" stroke="currentColor" stroke-width="1.00" stroke-linecap="butt" stroke-linejoin="miter">
	<path stroke='black'  d='M70.5,54.1 L79.5,54.1 M615.0,54.1 L606.0,54.1  '/>	<g transform="translate(62.2,58.0)" stroke="none" fill="black" font-family="Arial" font-size="12.00"  text-anchor="end">
		<text><tspan font-family="Arial" > 0.992</tspan></text>
	</g>
</g>
<g fill="none" color="black" stroke="currentColor" stroke-width="1.00" stroke-linecap="butt" stroke-linejoin="miter">
	<path stroke='black'  d='M70.5,436.0 L70.5,427.0 M70.5,18.1 L70.5,27.1  '/>	<g transform="translate(70.5,457.9)" stroke="none" fill="black" font-family="Arial" font-size="12.00"  text-anchor="middle">
		<text><tspan font-family="Arial" > 0</tspan></text>
	</g>
</g>
<g fill="none" color="black" stroke="currentColor" stroke-width="1.00" stroke-linecap="butt" stroke-linejoin="miter">
	<path stroke='black'  d='M125.5,436.0 L125.5,427.0 M125.5,18.1 L125.5,27.1  '/>	<g transform="translate(125.5,457.9)" stroke="none" fill="black" font-family="Arial" font-size="12.00"  text-anchor="middle">
		<text><tspan font-family="Arial" > 10</tspan></text>
	</g>
</g>
<g fill="none" color="black" stroke="currentColor" stroke-width="1.00" stroke-linecap="butt" stroke-linejoin="miter">
	<path stroke='black'  d='M180.5,436.0 L180.5,427.0 M180.5,18.1 L180.5,27.1  '/>	<g transform="translate(180.5,457.9)" stroke="none" fill="black" font-family="Arial" font-size="12.00"  text-anchor="middle">
		<text><tspan font-family="Arial" > 20</tspan></text>
	</g>
</g>
<g fill="none" color="black" stroke="currentColor" stroke-width="1.00" stroke-linecap="butt" stroke-linejoin="miter">
	<path stroke='black'  d='M235.5,436.0 L235.5,427.0 M235.5,18.1 L235.5,27.1  '/>	<g transform="translate(235.5,457.9)" stroke="none" fill="black" font-family="Arial" font-size="12.00"  text-anchor="middle">
		<text><tspan font-family="Arial" > 30</tspan></text>
	</g>
</g>
<g fill="none" color="black" stroke="currentColor" stroke-width="1.00" stroke-linecap="butt" stroke-linejoin="miter">
	<path stroke='black'  d='M290.5,436.0 L290.5,427.0 M290.5,18.1 L290.5,27.1  '/>	<g transform="translate(290.5,457.9)" stroke="none" fill="black" font-family="Arial" font-size="12.00"  text-anchor="middle">
		<text><tspan font-family="Arial" > 40</tspan></text>
	</g>
</g>
<g fill="none" color="black" stroke="currentColor" stroke-width="1.00" stroke-linecap="butt" stroke-linejoin="miter">
	<path stroke='black'  d='M345.5,436.0 L345.5,427.0 M345.5,18.1 L345.5,27.1  '/>	<g transform="translate(345.5,457.9)" stroke="none" fill="black" font-family="Arial" font-size="12.00"  text-anchor="middle">
		<text><tspan font-family="Arial" > 50</tspan></text>
	</g>
</g>
<g fill="none" color="black" stroke="currentColor" stroke-width="1.00" stroke-linecap="butt" stroke-linejoin="miter">
	<path stroke='black'  d='M400.5,436.0 L400.5,427.0 M400.5,18.1 L400.5,27.1  '/>	<g transform="translate(400.5,457.9)" stroke="none" fill="black" font-family="Arial" font-size="12.00"  text-anchor="middle">
		<text><tspan font-family="Arial" > 60</tspan></text>
	</g>
</g>
<g fill="none" color="black" stroke="currentColor" stroke-width="1.00" stroke-linecap="butt" stroke-linejoin="miter">
	<path stroke='black'  d='M455.5,436.0 L455.5,427.0 M455.5,18.1 L455.5,27.1  '/>	<g transform="translate(455.5,457.9)" stroke="none" fill="black" font-family="Arial" font-size="12.00"  text-anchor="middle">
		<text><tspan font-family="Arial" > 70</tspan></text>
	</g>
</g>
<g fill="none" color="black" stroke="currentColor" stroke-width="1.00" stroke-linecap="butt" stroke-linejoin="miter">
	<path stroke='black'  d='M510.5,436.0 L510.5,427.0 M510.5,18.1 L510.5,27.1  '/>	<g transform="translate(510.5,457.9)" stroke="none" fill="black" font-family="Arial" font-size="12.00"  text-anchor="middle">
		<text><tspan font-family="Arial" > 80</tspan></text>
	</g>
</g>
<g fill="none" color="black" stroke="currentColor" stroke-width="1.00" stroke-linecap="butt" stroke-linejoin="miter">
	<path stroke='black'  d='M565.5,436.0 L565.5,427.0 M565.5,18.1 L565.5,27.1  '/>	<g transform="translate(565.5,457.9)" stroke="none" fill="black" font-family="Arial" font-size="12.00"  text-anchor="middle">
		<text><tspan font-family="Arial" > 90</tspan></text>
	</g>
</g>
<g fill="none" color="black" stroke="currentColor" stroke-width="1.00" stroke-linecap="butt" stroke-linejoin="miter">
</g>
<g fill="none" color="black" stroke="currentColor" stroke-width="1.00" stroke-linecap="butt" stroke-linejoin="miter">
	<path stroke='black'  d='M70.5,18.1 L70.5,436.0 L615.0,436.0 L615.0,18.1 L70.5,18.1 Z  '/></g>
<g fill="none" color="black" stroke="currentColor" stroke-width="1.00" stroke-linecap="butt" stroke-linejoin="miter">
</g>
	<g id="gnuplot_plot_1" ><title>score</title>
<g fill="none" color="black" stroke="currentColor" stroke-width="1.00" stroke-linecap="butt" stroke-linejoin="miter">
	<g transform="translate(334.1,475.9)" stroke="none" fill="black" font-family="Arial" font-size="12.00"  text-anchor="end">
		<text><tspan font-family="Arial" >score</tspan></text>
	</g>
</g>
<g fill="none" color="black" stroke="currentColor" stroke-width="1.00" stroke-linecap="butt" stroke-linejoin="miter">
	<path stroke='rgb(148,   0, 211)'  d='M342.4,472.0 L384.6,472.0 M70.5,255.5 L76.0,107.5 L81.5,337.8 L87.0,198.5 L92.5,235.5 L98.0,127.6
		L103.5,252.5 L109.0,114.6 L114.5,229.7 L120.0,367.1 L125.5,201.7 L131.0,230.8 L136.5,191.9 L142.0,235.9
		L147.5,108.7 L153.0,112.3 L158.5,216.3 L164.0,99.1 L169.5,130.9 L175.0,221.8 L180.5,115.3 L186.0,124.9
		L191.5,111.8 L197.0,211.9 L202.5,316.6 L208.0,137.8 L213.5,110.9 L219.0,110.0 L224.5,117.2 L230.0,100.1
		L235.5,214.4 L241.0,112.0 L246.5,110.8 L252.0,238.1 L257.5,106.3 L263.0,99.7 L268.5,159.3 L274.0,160.5
		L279.5,216.9 L285.0,136.5 L290.5,116.9 L296.0,208.7 L301.5,87.0 L307.0,213.9 L312.5,112.6 L318.0,136.3
		L323.5,128.4 L329.0,159.7 L334.5,174.3 L340.0,118.1 L345.5,129.0 L351.0,133.9 L356.5,134.5 L362.0,111.3
		L367.5,142.8 L373.0,115.0 L378.5,264.1 L384.0,208.4 L389.5,124.9 L395.0,97.1 L400.5,116.3 L406.0,211.7
		L411.5,120.7 L417.0,102.0 L422.5,105.7 L428.0,135.1 L433.5,113.9 L439.0,115.4 L444.5,201.2 L450.0,130.8
		L455.5,241.3 L461.0,227.7 L466.5,135.7 L472.0,223.5 L477.5,131.7 L483.0,122.3 L488.5,112.7 L494.0,112.2
		L499.5,105.7 L505.0,88.7 L510.5,159.7 L516.0,140.8 L521.5,178.4 L527.0,113.2 L532.5,119.5 L538.0,254.4
		L543.5,122.1 L549.0,249.5 L554.5,129.6 L560.0,128.7 L565.5,107.8 L571.0,200.2 L576.5,105.0 L582.0,110.0
		L587.5,147.7 L593.0,210.0 L598.5,110.6 L604.0,124.8 L609.5,222.5 L615.0,167.8  '/></g>
	</g>
<g fill="none" color="#FFFFFF" stroke="rgb(148,   0, 211)" stroke-width="2.00" stroke-linecap="butt" stroke-linejoin="miter">
</g>
<g fill="none" color="black" stroke="currentColor" stroke-width="2.00" stroke-linecap="butt" stroke-linejoin="miter">
</g>
<g fill="none" color="black" stroke="black" stroke-width="1.00" stroke-linecap="butt" stroke-linejoin="miter">
</g>
<g fill="none" color="black" stroke="currentColor" stroke-width="1.00" stroke-linecap="butt" stroke-linejoin="miter">
	<path stroke='black'  d='M70.5,18.1 L70.5,436.0 L615.0,436.0 L615.0,18.1 L70.5,18.1 Z  '/></g>
<g fill="none" color="black" stroke="currentColor" stroke-width="1.00" stroke-linecap="butt" stroke-linejoin="miter">
</g>
</g>
</svg>
